icon-svg/echo-dot-gen-3.svg

<svg xmlns="http://www.w3.org/2000/svg" fill="#44739e" viewBox="0 0 24 24"><path d="M3.642 8.726a1.71 1.71 0 0 1-.927-.644c-.061.279-.1.527.076.644A4.76 4.76 0 0 0 5 9.541a55.6 55.6 0 0 0 7.52.729c4.934.013 8.618-1.3 9.082-2.09 0 0-.692.546-3.73 1.1a35.75 35.75 0 0 1-14.23-.554m-.927-.644c.016-.07.032-.141.046-.214-.087.047-.09.125-.046.214M14.324 9.4c1.281-.009 9.336-.666 5.876-2.2C18.03 6.188 3.306 5.467 3 8.1c3.074 1.561 9.987 1.3 11.324 1.3m.881-2.269a3.22 3.22 0 0 1 1.95.077c.745.726-3.455.437-1.95-.081Zm-6.32.429c-.429.186-3 .041-1.794-.429.317-.254 2.801-.093 1.794.425Zm2.263-.742a3.213 3.213 0 0 1 1.833.039c1.259.675-3.413.564-1.833-.043Zm0 1.4c.318-.24 2.81-.111 1.794.429-.461.179-2.989.06-1.794-.428zm10.844 4.175c-.059-1.219.2-3.316-.39-4.213-.017 1.225-1.288 1.336-2.145 1.6-3.281.835-7.889.817-11.664.546-1.632-.383-4.267-.143-5.344-1.716-.711-.506-.623 5.163-.039 6.2a4.405 4.405 0 0 0 1.326 1.4c3.164 1.911 19.139 3.417 18.256-3.817"/></svg>

<?xml version="1.0" encoding="UTF-8"?>
<svg xmlns="http://www.w3.org/2000/svg" fill="#44739e" width="24" height="24" viewBox="0 0 24 24">
  <path d="M 3.642,8.726 A 1.709,1.709 0 0 1 2.715,8.082 C 2.654,8.361 2.615,8.609 2.791,8.726 A 4.757,4.757 0 0 0 5,9.541 55.627,55.627 0 0 0 12.52,10.27 c 4.934,0.013 8.618,-1.3 9.082,-2.09 0,0 -0.692,0.546 -3.73,1.1 A 35.749,35.749 0 0 1 3.642,8.726 Z M 2.715,8.082 C 2.731,8.012 2.747,7.941 2.761,7.868 2.674,7.915 2.671,7.993 2.715,8.082 Z M 14.324,9.4 C 15.605,9.391 23.66,8.734 20.2,7.2 18.03,6.188 3.306,5.467 3,8.1 6.074,9.661 12.987,9.4 14.324,9.4 Z m 0.881,-2.269 a 3.219,3.219 0 0 1 1.95,0.077 C 17.9,7.934 13.7,7.645 15.205,7.127 Z M 8.885,7.56 C 8.456,7.746 5.885,7.601 7.091,7.131 7.408,6.877 9.892,7.038 8.885,7.556 Z m 2.263,-0.742 a 3.213,3.213 0 0 1 1.833,0.039 C 14.24,7.532 9.568,7.421 11.148,6.814 Z m 0,1.4 c 0.318,-0.24 2.81,-0.111 1.794,0.429 -0.461,0.179 -2.989,0.06 -1.794,-0.428 z m 10.844,4.175 c -0.059,-1.219 0.2,-3.316 -0.39,-4.213 -0.017,1.225 -1.288,1.336 -2.145,1.6 -3.281,0.835 -7.889,0.817 -11.664,0.546 C 6.161,9.943 3.526,10.183 2.449,8.61 1.738,8.104 1.826,13.773 2.41,14.81 a 4.405,4.405 0 0 0 1.326,1.4 c 3.164,1.911 19.139,3.417 18.256,-3.817 z"/>
</svg>
